dist/svg/key-add-o.svg

<!-- Generated by Trend Micro Style Portal -->
<svg version="1.1" xmlns="http://www.w3.org/2000/svg" width="16" height="16" viewBox="0 0 16 16">
  <title>key-add-o</title>
  <path fill="rgb(34,34,34)" d="M16 13h-3v3h-2v-3h-3v-2h3v-3h2v3h3zM9.293 8.293l-1.707 1.707h1.414l1-1v-1h-0.414zM2.586 15h-1.586v-1.586l1-1v-1.414h2v-2h1.414l2.586-2.586v-4.414c0.001-0.552 0.448-0.999 1-1h5c0.552 0.001 0.999 0.448 1 1v5c-0.001 0.552-0.448 0.999-1 1h-0v1c1.105 0 2-0.895 2-2v0-5c0-1.105-0.895-2-2-2v0h-5c-1.105 0-2 0.895-2 2v0 4l-2 2h-2v2h-2v2l-1 1v3h3l4-4v-1.414zM14 3.5c0 0.828-0.672 1.5-1.5 1.5s-1.5-0.672-1.5-1.5c0-0.828 0.672-1.5 1.5-1.5v0c0.828 0 1.5 0.672 1.5 1.5v0zM13 3.5c0-0.276-0.224-0.5-0.5-0.5s-0.5 0.224-0.5 0.5c0 0.276 0.224 0.5 0.5 0.5v0c0.276-0 0.5-0.224 0.5-0.5v-0z"></path>
</svg>

<svg width="16" height="16" viewBox="0 0 16 16" fill="rgb(34, 34, 34)" xmlns="http://www.w3.org/2000/svg"><title>key-add-o</title><path d="M16 13H13V16H11V13H8V11H11V8H13V11H16V13ZM9.293 8.293L7.586 10H9L10 9V8H9.586L9.293 8.293ZM2.586 15H1V13.414L2 12.414V11H4V9H5.414L8 6.414V2C8.001 1.448 8.448 1.001 9 1H14C14.552 1.001 14.999 1.448 15 2V7C14.999 7.552 14.552 7.999 14 8V9C15.105 9 16 8.105 16 7V2C16 0.895 15.105 0 14 0H9C7.895 0 7 0.895 7 2V6L5 8H3V10H1V12L0 13V16H3L7 12V10.586L2.586 15ZM14 3.5C14 4.328 13.328 5 12.5 5C11.672 5 11 4.328 11 3.5C11 2.672 11.672 2 12.5 2C13.328 2 14 2.672 14 3.5ZM13 3.5C13 3.224 12.776 3 12.5 3C12.224 3 12 3.224 12 3.5C12 3.776 12.224 4 12.5 4C12.776 4 13 3.776 13 3.5Z" fill="rgb(34, 34, 34)" fill-opacity="1.00"/></svg>
